assets/sonr-icons/preferences.svg

<svg xmlns="http://www.w3.org/2000/svg" width="24" height="24" fill="none" viewBox="0 0 24 24"><path fill="#000" d="M2 7.00002C2 6.44802 2.448 6.00002 3 6.00002H7V8.00002H3C2.448 8.00002 2 7.55102 2 7.00002ZM3 16C2.448 16 2 16.448 2 17C2 17.552 2.448 18 3 18H15V16H3ZM17 16V18H21C21.552 18 22 17.552 22 17C22 16.448 21.552 16 21 16H17ZM9 6.00002V8.00002H21C21.552 8.00002 22 7.55202 22 7.00002C22 6.44802 21.552 6.00002 21 6.00002H9Z"/><path fill="#000" d="M11 7C11 8.657 9.657 10 8 10C6.343 10 5 8.657 5 7C5 5.343 6.343 4 8 4C9.657 4 11 5.343 11 7ZM9 7C9 7.552 8.552 8 8 8C7.448 8 7 7.552 7 7C7 6.448 7.448 6 8 6C8.552 6 9 6.448 9 7ZM19 17C19 18.657 17.657 20 16 20C14.343 20 13 18.657 13 17C13 15.343 14.343 14 16 14C17.657 14 19 15.343 19 17ZM17 17C17 17.552 16.552 18 16 18C15.448 18 15 17.552 15 17C15 16.448 15.448 16 16 16C16.552 16 17 16.448 17 17Z"/></svg>

<svg xmlns="http://www.w3.org/2000/svg" width="24" height="24" fill="none"><path fill="currentColor" d="M2 7a1 1 0 0 1 1-1h4v2H3c-.552 0-1-.449-1-1m1 9a1 1 0 0 0 0 2h12v-2zm14 0v2h4a1 1 0 0 0 0-2zM9 6v2h12a1 1 0 0 0 0-2z"/><path fill="currentColor" d="M11 7a3 3 0 1 1-6 0 3 3 0 0 1 6 0M9 7a1 1 0 1 1-2 0 1 1 0 0 1 2 0m10 10a3 3 0 1 1-6 0 3 3 0 0 1 6 0m-2 0a1 1 0 1 1-2 0 1 1 0 0 1 2 0"/></svg>
